tg-cd/_inc/system.svg

<svg xmlns="http://www.w3.org/2000/svg"><g fill="none"><path d="m0 2.493h28.011v8.244h-8.199v111.882h-9.909v-111.882h-9.903z"/><path d="m53.385 114.432h10.935v-78.39h9.561v78.39c0 5.07-4.611 8.667-9.336 8.667h-11.16c-4.995 0-9.45-4.065-9.45-8.769v-78.285h9.45z"/><path d="m259.029 55.191h14.604v67.983h-20.58c-4.401 0-9.822-3.369-9.822-8.478v-102.768c0-4.317 4.524-8.916 9.606-8.916h11.232c4.98 0 9.498 4.554 9.498 8.814v24.345h-9.843v-24.006h-11.184v102.606h11.442v-51.264h-4.956v-8.316z"/><path d="m400.257 81.45v41.208h-9.222v-78.921c0-3.564 3.546-7.449 8.028-7.449h15.201v7.605h-14.007v29.157h11.532v8.436z"/><path d="m432.966 36.309h9.678v31.434l5.466 5.496 5.349-5.343v-31.587h9.561v29.904c0 3.654-9.444 13.275-9.444 13.275s9.564 9.618 9.564 13.512v29.832h-8.997v-31.059l-5.805-5.871-5.808 5.796v31.137h-9.564v-29.76c0-3.66 10.128-13.662 10.128-13.662s-10.128-9.516-10.128-13.347z"/><path d="m115.329 81.645c3.246 0 7.56-3.879 7.56-9.069v-28.368c0-4.08-4.659-7.881-9.951-7.881h-19.641v86.679h9.054v-40.722h3.414l10.077 40.569h8.88zm-1.791-8.472h-10.848v-28.449h10.848z"/><path d="m315.669 81.42c3.246 0 7.563-3.888 7.563-9.075v-28.365c0-4.08-4.659-7.884-9.951-7.884h-19.641v86.682h9.045v-40.728h3.423l10.077 40.569h8.88zm-1.923-8.574h-10.839v-28.44h10.839z"/><path d="m171.285 83.688c-.042-3.882-4.098-6.339-4.098-6.339s4.098-2.652 4.098-6.339v-26.46c0-4.995-4.398-8.247-8.88-8.247h-20.667v86.529h20.667c4.185 0 8.88-2.616 8.88-8.241 0 0 .045-27.021 0-30.903zm-9.309 30.666h-10.842v-32.25h10.842zm0-41.205h-10.842v-28.443h10.842z"/><path d="m210.867 35.667h-5.466-5.295c-5.424 0-9.372 4.635-9.372 8.163v70.272c0 4.542 5.058 8.661 9.33 8.661h11.7c4.569 0 9.135-4.719 9.135-8.481v-70.692c0-3.168-4.314-7.923-10.032-7.923zm.339 78.162h-10.476v-69.603h10.476z"/><path d="m362.787 36.285h-11.952c-5.379 0-8.541 4.437-8.541 7.923v78.45h9.051v-41.208h11.442v41.208h9.054v-77.976c0-5.175-3.582-8.397-9.054-8.397zm-.258 36.609h-10.842v-27.891h10.842z"/><path d="m553.266 93.69h21.996v-41.241h-21.996zm-10.998-76.977c-30.366 0-54.984 24.615-54.984 54.981 0 30.369 24.621 54.987 54.984 54.987 30.369 0 54.984-24.621 54.984-54.987.003-30.366-24.615-54.981-54.984-54.981zm-2.745 41.238h-5.502v-2.751l-2.748-2.751h-21.993v41.241h21.993l2.748-2.751v-2.748h5.502v5.499l-5.502 5.496h-27.492l-2.748-2.748v-46.737l2.748-2.748h27.492l5.502 5.496zm41.235 35.739-5.496 5.496h-30.243v-5.496h2.748v-41.241h-2.748v-5.496h30.243l5.496 5.496z"/></g><path d="m56.379 111.936h10.932v-78.384h9.564v78.384c0 5.073-4.611 8.667-9.336 8.667h-11.16c-4.995 0-9.453-4.062-9.453-8.766v-78.285h9.453z" fill="#fff"/><path d="m262.02 52.695h14.607v67.986h-20.58c-4.401 0-9.822-3.372-9.822-8.481v-102.768c0-4.317 4.524-8.916 9.606-8.916h11.229c4.98 0 9.501 4.557 9.501 8.817v24.345h-9.843v-24.006h-11.184v102.603h11.442v-51.261h-4.956z" fill="#fff"/><path d="m403.248 78.957v41.208h-9.219v-78.924c0-3.564 3.543-7.449 8.025-7.449h15.204v7.608h-14.01v29.157h11.532v8.436z" fill="#fff"/><path d="m435.957 33.813h9.681v31.434l5.463 5.496 5.352-5.34v-31.59h9.561v29.91c0 3.651-9.444 13.272-9.444 13.272s9.561 9.618 9.561 13.515v29.829h-8.994v-31.056l-5.808-5.874-5.808 5.796v31.137h-9.564v-29.76c0-3.66 10.131-13.662 10.131-13.662s-10.131-9.516-10.131-13.347z" fill="#fff"/><path d="m118.323 79.152c3.243 0 7.557-3.879 7.557-9.069v-28.368c0-4.08-4.653-7.881-9.951-7.881h-19.641v86.679h9.054v-40.722h3.417l10.077 40.569h8.88zm-1.794-8.475h-10.848v-28.446h10.848z" fill="#fff"/><path d="m318.663 78.927c3.246 0 7.56-3.888 7.56-9.078v-28.362c0-4.083-4.656-7.884-9.948-7.884h-19.641v86.682h9.045v-40.728h3.42l10.08 40.569h8.88zm-1.923-8.577h-10.842v-28.443h10.842z" fill="#fff"/><path d="m174.279 81.195c-.045-3.885-4.098-6.342-4.098-6.342s4.098-2.652 4.098-6.339v-26.46c0-4.995-4.398-8.241-8.88-8.241h-20.667v86.526h20.667c4.185 0 8.88-2.613 8.88-8.241 0 0 .045-27.024 0-30.903zm-9.309 30.666h-10.845v-32.25h10.845zm0-41.205h-10.845v-28.443h10.845z" fill="#fff"/><path d="m213.858 33.171h-5.463-5.298c-5.424 0-9.372 4.638-9.372 8.163v70.272c0 4.542 5.061 8.664 9.333 8.664h11.697c4.569 0 9.138-4.719 9.138-8.478v-70.695c0-3.168-4.314-7.926-10.035-7.926zm.342 78.165h-10.476v-69.603h10.476z" fill="#fff"/><path d="m365.781 33.792h-11.949c-5.385 0-8.544 4.437-8.544 7.923v78.45h9.051v-41.208h11.442v41.208h9.051v-77.976c0-5.175-3.579-8.397-9.051-8.397zm-.261 36.609h-10.839v-27.891h10.839z" fill="#fff"/><path d="m2.991 0h28.011v8.241h-8.199v111.885h-9.909v-111.885h-9.903z" fill="#fff"/><path d="m545.016 13.962c-30.369 0-54.984 24.618-54.984 54.984 0 30.369 24.618 54.987 54.984 54.987s54.984-24.618 54.984-54.987c0-30.366-24.618-54.984-54.984-54.984zm-2.751 41.241h-5.499v-2.751l-2.748-2.748h-21.996v41.235h21.996l2.748-2.748v-2.748h5.499v5.496l-5.499 5.502h-27.492l-2.748-2.751v-46.737l2.748-2.748h27.492l5.499 5.499zm41.238 35.736-5.496 5.502h-30.243v-5.502h2.751v-41.235h-2.751v-5.502h30.243l5.496 5.502zm-27.489 0h21.993v-41.235h-21.993z" fill="#fff"/></svg>

<?xml version="1.0" encoding="utf-8"?>
<svg version="1.1" xmlns="http://www.w3.org/2000/svg">
  <g>
    <polygon fill="none" points="0 2.493 28.011 2.493 28.011 10.737 19.812 10.737 19.812 122.619 9.903 122.619 9.903 10.737 0 10.737"/>
    <path fill="none" d="M 53.385 114.432 L 64.32 114.432 L 64.32 36.042 L 73.881 36.042 L 73.881 114.432 C 73.881 119.502 69.27 123.099 64.545 123.099 L 53.385 123.099 C 48.39 123.099 43.935 119.034 43.935 114.33 L 43.935 36.045 L 53.385 36.045 L 53.385 114.432 Z"/>
    <path fill="none" d="M 259.029 55.191 L 273.633 55.191 L 273.633 123.174 L 253.053 123.174 C 248.652 123.174 243.231 119.805 243.231 114.696 L 243.231 11.928 C 243.231 7.611 247.755 3.012 252.837 3.012 L 264.069 3.012 C 269.049 3.012 273.567 7.566 273.567 11.826 L 273.567 36.171 L 263.724 36.171 L 263.724 12.165 L 252.54 12.165 L 252.54 114.771 L 263.982 114.771 L 263.982 63.507 L 259.026 63.507 L 259.026 55.191 Z"/>
    <path fill="none" d="M 400.257 81.45 L 400.257 122.658 L 391.035 122.658 L 391.035 43.737 C 391.035 40.173 394.581 36.288 399.063 36.288 L 414.264 36.288 L 414.264 43.893 L 400.257 43.893 L 400.257 73.05 L 411.789 73.05 L 411.789 81.486 L 400.257 81.45 Z"/>
    <path fill="none" d="M 432.966 36.309 L 442.644 36.309 L 442.644 67.743 L 448.11 73.239 L 453.459 67.896 L 453.459 36.309 L 463.02 36.309 L 463.02 66.213 C 463.02 69.867 453.576 79.488 453.576 79.488 C 453.576 79.488 463.14 89.106 463.14 93 L 463.14 122.832 L 454.143 122.832 L 454.143 91.773 L 448.338 85.902 L 442.53 91.698 L 442.53 122.835 L 432.966 122.835 L 432.966 93.075 C 432.966 89.415 443.094 79.413 443.094 79.413 C 443.094 79.413 432.966 69.897 432.966 66.066 L 432.966 36.309 Z"/>
    <path fill="none" d="M 115.329 81.645 C 118.575 81.645 122.889 77.766 122.889 72.576 L 122.889 44.208 C 122.889 40.128 118.23 36.327 112.938 36.327 L 93.297 36.327 L 93.297 123.006 L 102.351 123.006 L 102.351 82.284 L 105.765 82.284 L 115.842 122.853 L 124.722 122.853 L 115.329 81.645 Z M 113.538 73.173 L 102.69 73.173 L 102.69 44.724 L 113.538 44.724 L 113.538 73.173 Z"/>
    <path fill="none" d="M 315.669 81.42 C 318.915 81.42 323.232 77.532 323.232 72.345 L 323.232 43.98 C 323.232 39.9 318.573 36.096 313.281 36.096 L 293.64 36.096 L 293.64 122.778 L 302.685 122.778 L 302.685 82.05 L 306.108 82.05 L 316.185 122.619 L 325.065 122.619 L 315.669 81.42 Z M 313.746 72.846 L 302.907 72.846 L 302.907 44.406 L 313.746 44.406 L 313.746 72.846 Z"/>
    <path fill="none" d="M 171.285 83.688 C 171.243 79.806 167.187 77.349 167.187 77.349 C 167.187 77.349 171.285 74.697 171.285 71.01 L 171.285 44.55 C 171.285 39.555 166.887 36.303 162.405 36.303 L 141.738 36.303 L 141.738 122.832 L 162.405 122.832 C 166.59 122.832 171.285 120.216 171.285 114.591 C 171.285 114.591 171.33 87.57 171.285 83.688 Z M 161.976 114.354 L 151.134 114.354 L 151.134 82.104 L 161.976 82.104 L 161.976 114.354 Z M 161.976 73.149 L 151.134 73.149 L 151.134 44.706 L 161.976 44.706 L 161.976 73.149 Z"/>
    <path fill="none" d="M 210.867 35.667 L 205.401 35.667 L 200.106 35.667 C 194.682 35.667 190.734 40.302 190.734 43.83 L 190.734 114.102 C 190.734 118.644 195.792 122.763 200.064 122.763 L 211.764 122.763 C 216.333 122.763 220.899 118.044 220.899 114.282 L 220.899 43.59 C 220.899 40.422 216.585 35.667 210.867 35.667 Z M 211.206 113.829 L 200.73 113.829 L 200.73 44.226 L 211.206 44.226 L 211.206 113.829 Z"/>
    <path fill="none" d="M 362.787 36.285 L 350.835 36.285 C 345.456 36.285 342.294 40.722 342.294 44.208 L 342.294 122.658 L 351.345 122.658 L 351.345 81.45 L 362.787 81.45 L 362.787 122.658 L 371.841 122.658 L 371.841 44.682 C 371.841 39.507 368.259 36.285 362.787 36.285 Z M 362.529 72.894 L 351.687 72.894 L 351.687 45.003 L 362.529 45.003 L 362.529 72.894 Z"/>
    <path fill="none" d="M 553.266 93.69 L 575.262 93.69 L 575.262 52.449 L 553.266 52.449 L 553.266 93.69 Z M 542.268 16.713 C 511.902 16.713 487.284 41.328 487.284 71.694 C 487.284 102.063 511.905 126.681 542.268 126.681 C 572.637 126.681 597.252 102.06 597.252 71.694 C 597.255 41.328 572.637 16.713 542.268 16.713 Z M 539.523 57.951 L 534.021 57.951 L 534.021 55.2 L 531.273 52.449 L 509.28 52.449 L 509.28 93.69 L 531.273 93.69 L 534.021 90.939 L 534.021 88.191 L 539.523 88.191 L 539.523 93.69 L 534.021 99.186 L 506.529 99.186 L 503.781 96.438 L 503.781 49.701 L 506.529 46.953 L 534.021 46.953 L 539.523 52.449 L 539.523 57.951 Z M 580.758 93.69 L 575.262 99.186 L 545.019 99.186 L 545.019 93.69 L 547.767 93.69 L 547.767 52.449 L 545.019 52.449 L 545.019 46.953 L 575.262 46.953 L 580.758 52.449 L 580.758 93.69 Z"/>
    <path d="M 56.379 111.936 L 67.311 111.936 L 67.311 33.552 L 76.875 33.552 L 76.875 111.936 C 76.875 117.009 72.264 120.603 67.539 120.603 L 56.379 120.603 C 51.384 120.603 46.926 116.541 46.926 111.837 L 46.926 33.552 L 56.379 33.552 L 56.379 111.936 Z" style="fill: rgb(255, 255, 255);"/>
    <path d="M 262.02 52.695 L 276.627 52.695 L 276.627 120.681 L 256.047 120.681 C 251.646 120.681 246.225 117.309 246.225 112.2 L 246.225 9.432 C 246.225 5.115 250.749 0.516 255.831 0.516 L 267.06 0.516 C 272.04 0.516 276.561 5.073 276.561 9.333 L 276.561 33.678 L 266.718 33.678 L 266.718 9.672 L 255.534 9.672 L 255.534 112.275 L 266.976 112.275 L 266.976 61.014 L 262.02 61.014 L 262.02 52.695 Z" style="fill: rgb(255, 255, 255);"/>
    <path d="M 403.248 78.957 L 403.248 120.165 L 394.029 120.165 L 394.029 41.241 C 394.029 37.677 397.572 33.792 402.054 33.792 L 417.258 33.792 L 417.258 41.4 L 403.248 41.4 L 403.248 70.557 L 414.78 70.557 L 414.78 78.993 L 403.248 78.957 Z" style="fill: rgb(255, 255, 255);"/>
    <path d="M 435.957 33.813 L 445.638 33.813 L 445.638 65.247 L 451.101 70.743 L 456.453 65.403 L 456.453 33.813 L 466.014 33.813 L 466.014 63.723 C 466.014 67.374 456.57 76.995 456.57 76.995 C 456.57 76.995 466.131 86.613 466.131 90.51 L 466.131 120.339 L 457.137 120.339 L 457.137 89.283 L 451.329 83.409 L 445.521 89.205 L 445.521 120.342 L 435.957 120.342 L 435.957 90.582 C 435.957 86.922 446.088 76.92 446.088 76.92 C 446.088 76.92 435.957 67.404 435.957 63.573 L 435.957 33.813 Z" style="fill: rgb(255, 255, 255);"/>
    <path d="M 118.323 79.152 C 121.566 79.152 125.88 75.273 125.88 70.083 L 125.88 41.715 C 125.88 37.635 121.227 33.834 115.929 33.834 L 96.288 33.834 L 96.288 120.513 L 105.342 120.513 L 105.342 79.791 L 108.759 79.791 L 118.836 120.36 L 127.716 120.36 L 118.323 79.152 Z M 116.529 70.677 L 105.681 70.677 L 105.681 42.231 L 116.529 42.231 L 116.529 70.677 Z" style="fill: rgb(255, 255, 255);"/>
    <path d="M 318.663 78.927 C 321.909 78.927 326.223 75.039 326.223 69.849 L 326.223 41.487 C 326.223 37.404 321.567 33.603 316.275 33.603 L 296.634 33.603 L 296.634 120.285 L 305.679 120.285 L 305.679 79.557 L 309.099 79.557 L 319.179 120.126 L 328.059 120.126 L 318.663 78.927 Z M 316.74 70.35 L 305.898 70.35 L 305.898 41.907 L 316.74 41.907 L 316.74 70.35 Z" style="fill: rgb(255, 255, 255);"/>
    <path d="M 174.279 81.195 C 174.234 77.31 170.181 74.853 170.181 74.853 C 170.181 74.853 174.279 72.201 174.279 68.514 L 174.279 42.054 C 174.279 37.059 169.881 33.813 165.399 33.813 L 144.732 33.813 L 144.732 120.339 L 165.399 120.339 C 169.584 120.339 174.279 117.726 174.279 112.098 C 174.279 112.098 174.324 85.074 174.279 81.195 Z M 164.97 111.861 L 154.125 111.861 L 154.125 79.611 L 164.97 79.611 L 164.97 111.861 Z M 164.97 70.656 L 154.125 70.656 L 154.125 42.213 L 164.97 42.213 L 164.97 70.656 Z" style="fill: rgb(255, 255, 255);"/>
    <path d="M 213.858 33.171 L 208.395 33.171 L 203.097 33.171 C 197.673 33.171 193.725 37.809 193.725 41.334 L 193.725 111.606 C 193.725 116.148 198.786 120.27 203.058 120.27 L 214.755 120.27 C 219.324 120.27 223.893 115.551 223.893 111.792 L 223.893 41.097 C 223.893 37.929 219.579 33.171 213.858 33.171 Z M 214.2 111.336 L 203.724 111.336 L 203.724 41.733 L 214.2 41.733 L 214.2 111.336 Z" style="fill: rgb(255, 255, 255);"/>
    <path d="M 365.781 33.792 L 353.832 33.792 C 348.447 33.792 345.288 38.229 345.288 41.715 L 345.288 120.165 L 354.339 120.165 L 354.339 78.957 L 365.781 78.957 L 365.781 120.165 L 374.832 120.165 L 374.832 42.189 C 374.832 37.014 371.253 33.792 365.781 33.792 Z M 365.52 70.401 L 354.681 70.401 L 354.681 42.51 L 365.52 42.51 L 365.52 70.401 Z" style="fill: rgb(255, 255, 255);"/>
    <polygon points="2.991 0 31.002 0 31.002 8.241 22.803 8.241 22.803 120.126 12.894 120.126 12.894 8.241 2.991 8.241" style="fill: rgb(255, 255, 255);"/>
    <path d="M 545.016 13.962 C 514.647 13.962 490.032 38.58 490.032 68.946 C 490.032 99.315 514.65 123.933 545.016 123.933 C 575.382 123.933 600 99.315 600 68.946 C 600 38.58 575.382 13.962 545.016 13.962 Z M 542.265 55.203 L 536.766 55.203 L 536.766 52.452 L 534.018 49.704 L 512.022 49.704 L 512.022 90.939 L 534.018 90.939 L 536.766 88.191 L 536.766 85.443 L 542.265 85.443 L 542.265 90.939 L 536.766 96.441 L 509.274 96.441 L 506.526 93.69 L 506.526 46.953 L 509.274 44.205 L 536.766 44.205 L 542.265 49.704 L 542.265 55.203 Z M 583.503 90.939 L 578.007 96.441 L 547.764 96.441 L 547.764 90.939 L 550.515 90.939 L 550.515 49.704 L 547.764 49.704 L 547.764 44.202 L 578.007 44.202 L 583.503 49.704 L 583.503 90.939 Z M 556.014 90.939 L 578.007 90.939 L 578.007 49.704 L 556.014 49.704 L 556.014 90.939 Z" style="fill: rgb(255, 255, 255);"/>
  </g>
</svg>
